src/assets/icons/weeks,simple,16.svg

<svg width="48" height="48" viewBox="0 0 48 48" fill="none" xmlns="http://www.w3.org/2000/svg">
<rect opacity="0.2" x="5" y="5" width="38" height="38" rx="4" fill="black"/>
<path d="M5 13C5 9.22876 5 7.34315 6.17157 6.17157C7.34315 5 9.22876 5 13 5H35C38.7712 5 40.6569 5 41.8284 6.17157C43 7.34315 43 9.22876 43 13V15H5V13Z" fill="black"/>
<path d="M19.2156 20.5455H15.7468L11.4258 23.2812V26.554L15.4229 24.0483H15.5252V38H19.2156V20.5455ZM30.0629 38.2386C33.9492 38.2557 36.5998 35.7074 36.5913 32.1534C36.5998 28.8807 34.3157 26.5199 31.2219 26.5199C29.3043 26.5199 27.6083 27.4403 26.8242 28.983H26.7049C26.7219 25.5824 27.9151 23.4688 30.1907 23.4688C31.5288 23.4688 32.4918 24.2017 32.7731 25.4205H36.4123C36.0629 22.5483 33.6765 20.3068 30.1907 20.3068C25.8782 20.3068 23.1083 23.8011 23.0913 29.6648C23.0827 36.0568 26.4748 38.2216 30.0629 38.2386ZM30.0458 35.3409C28.3413 35.3409 27.0799 33.9688 27.0799 32.2642C27.0884 30.5682 28.3754 29.1875 30.0714 29.1875C31.7759 29.1875 33.0202 30.5256 33.0117 32.2557C33.0202 34.0028 31.7504 35.3409 30.0458 35.3409Z" fill="black"/>
</svg>

<svg xmlns="http://www.w3.org/2000/svg" width="48" height="48" fill="none" viewBox="0 0 48 48">
  <rect width="38" height="38" x="5" y="5" fill="#000" opacity=".2" rx="4"/>
  <path fill="#000" d="M5 13c0-3.771 0-5.657 1.172-6.828C7.343 5 9.229 5 13 5h22c3.771 0 5.657 0 6.828 1.172C43 7.343 43 9.229 43 13v2H5v-2zM19.216 20.546h-3.47l-4.32 2.735v3.273l3.997-2.506h.102V38h3.69V20.546zm10.847 17.693c3.886.017 6.537-2.532 6.528-6.086.009-3.272-2.275-5.633-5.37-5.633-1.917 0-3.613.92-4.397 2.463h-.12c.018-3.4 1.211-5.514 3.487-5.514 1.338 0 2.3.733 2.582 1.951h3.64c-.35-2.872-2.736-5.113-6.222-5.113-4.313 0-7.083 3.494-7.1 9.358-.008 6.392 3.384 8.557 6.972 8.574zm-.017-2.898c-1.705 0-2.966-1.372-2.966-3.077.008-1.696 1.295-3.077 2.991-3.077 1.705 0 2.95 1.339 2.94 3.069.01 1.747-1.26 3.085-2.965 3.085z"/>
</svg>
